X:1
T:What Do the Flowers Say?
T:What Do the Flowers Say?
T:Ira Bishop Wilson
T:Lizzie DeArmond, 1908
T:Public Domain Courtesy of the Cyber Hymnal™
C:Ira Bishop Wilson
Z:Public Domain
Z:Courtesy of the Cyber Hymnal™
%%score ( 1 2 ) ( 3 4 )
L:1/8
Q:1/4=93
M:6/8
K:Bb
V:1 treble 
V:2 treble 
V:3 bass 
V:4 bass 
V:1
 F=EF BAG | [EA]2 [A,E] [A,E]3 | EDE GA[A,E] | [DG]2 [B,D] [DF]3 | F=EF BAG | [CA]2 [A,C] [CA]3 | %6
w: 1.~What do the dear lit- tle|flow- ers say,|Nod- ding a- bout us so|glad and gay?|Bloom- ing in beau- ty for|East- er day,|
w: 2.~What do the dear lit- tle|flow- ers say,|Turn- ing their fac- es to|Heav- en’s blue!|Giv- ing out per- fume the|whole day thro’,|
w: 3.~What do the dear lit- tle|flow- ers say?|List- en, while slow- ly they|bend and sway,|Bow- ing their heads in a|rev- erent way,|
 [DB]3 [CA]2 [B,G] | [A,F]3- [A,F]2 z ||[M:4/4]"^Refrain" [DB]2 [DB]>[DB] [EB]2 [EA][EG] | %9
w: Bright East- er|day. *||
w: This East- er|day. *|“Glad- ly we wel- come the|
w: This East- er|day. *||
 [DF]2 [B,D]2 [DF]4 | [DB]2 [DB]>[DB] [DB]2 [=EA][EB] | [Fc]2 [=Ec]2 [Fc]4 | %12
w: |||
w: ris- en King,|Beau- ty and sweet- ness to|Him we bring.”|
w: |||
 [Fd]2 [Ec]>[DB] [EA]2 [EG][EA] | [Fc]2 [B,B]2 C4 | [^CG][CG][CA][CB] d2 [E=c]2 | [DB]6 z2 |] %16
w: ||||
w: This is the word that the|flow- ers say,|On this joy- ous East- er|day.|
w: ||||
V:2
 D6 | x6 | A,3 E2 x | x6 | D6 | x6 | x6 | x6 ||[M:4/4] x8 | x8 | x8 | x8 | x8 | x4 C4 | %14
 x4 (DF) x2 | x8 |] %16
V:3
 B,,2 A, F,,2 F, | C,2 F, F,,2 F, | C,2 F, F,,2 F, | B,,2 F, B,2 F, | B,,2 F, F,,2 F, | %5
 C,2 F, C,2 F, | z2 D, [C,=E,]3 | ([F,,F,]2 C, F,,2) z || %8
[M:4/4] [B,,F,]2 [B,,F,]>[B,,F,] [B,,G,]2 [B,,G,][B,,A,] | [B,,B,]2 [B,,F,]2 [B,,B,]4 | %10
 [B,,F,]2 [B,,F,]>[B,,F,] [G,,G,]2 [C,G,][C,G,] | [F,A,]2 [C,G,]2 A,4 | %12
 [B,,B,]2 [B,,F,]>[B,,F,] [C,F,]2 [C,F,][C,F,] | [D,F,]2 [D,F,]2 [E,G,]4 | %14
 [=E,B,][E,B,][E,A,][E,G,] [F,B,]2 [F,A,]2 | [B,,B,]6 z2 |] %16
V:4
 x6 | x6 | x6 | x6 | x6 | x6 | C,3 x3 | x6 ||[M:4/4] x8 | x8 | x8 | x4 (F,E,D,C,) | x8 | x8 | x8 | %15
 x8 |] %16

